X:86
T: Graf und Nonne (Die Nonne)
N: Q0155W
O: Mitteleuropa, Deutschland (DDR) , Sachsen, Eisleben
N: Anhaengsel an der fuenften und siebten Zeile.
R: Ballade, Standesunterschied, vergebliche Werbung, Liebe, Klage
M: 2/4
L: 1/16
K: G
GB | d3gdBcA | B4A2
A2 | B2g2f2e2 | d4z2
GB | d3gdBcA | B4A2
A2 | B2g2f2e2 | d4z2
d2 | g2g2fef2 | e4d2z2 | c4B2
d2 | e2dcB2A2 | G4z2
d2 | g2g2fef2 | e4d2z2 | c4B2
d2 | e2dcB2A2 | G4z2

@@@ Tune index: 1796
